X:1
T:Into Thy Hands, O Lord
T:Into Thy Hands, O Lord
T:John Harrison Tenney
T:Susan J. Adams, 1871
T:Public Domain Courtesy of the Cyber Hymnal™
C:John Harrison Tenney
Z:Public Domain
Z:Courtesy of the Cyber Hymnal™
%%score ( 1 2 ) ( 3 4 )
L:1/8
Q:1/4=98
M:6/8
K:G
V:1 treble 
V:2 treble 
V:3 bass 
V:4 bass 
V:1
 G | [GB]2 [GB] [FB]2 [FA] | G3- G2 G | [EG]3 [CE]3 | [B,D]3- [B,D]2 [DG] | [DF]2 [FA] [Ac]2 [GB] | %6
w: 1.~In-|to Thy hands, O|Lord, * My-|self I|give, * With|all my cares and|
w: 2.~All|I have ev- er|been * Or|hope to|be; * My|hoard- ed gains, my|
w: 3.~I|would no long- er|stand * An|id- ler|here, * Thy|work I would be|
w: 4.~Thou|know- est all my|need, * Bet-|ter than|I; * Quick-|en my weak en-|
 [GB]3 [FA]2 [DA] | [DB]2 [Dc] [Dd]2 [DB] | [DB]3 [DA]2 [DA] | [DB]3 [^DA]3 | [EG]3- [EG]2 [CE] | %11
w: tri- als, And|wea- ry self de-|ni- als, Long|as I|live, * Long|
w: loss- es, My|tri- umphs and my|cross- es, I|bring to|Thee, * I|
w: do- ing, Dai-|ly my toil re-|new- ing, Till|Thou ap-|pear, * Till|
w: dea- vor, That|I may love Thee|ev- er, Un-|til I|die, * Un-|
 [B,D]3 [CA]3 | [B,G]3- [B,G]2 |] %13
w: as I|live. *|
w: bring to|Thee. *|
w: Thou ap-|pear. *|
w: til I|die. *|
V:2
 G | x6 | G3- G2 G | x6 | x6 | x6 | x6 | x6 | x6 | x6 | x6 | x6 | x5 |] %13
V:3
 [G,B,] | [G,D]2 [G,D] [D,D]2 [D,C] | [E,B,]3- [E,B,]2 [E,B,] | [C,C]3 [C,G,]3 | %4
 [G,,G,]3- [G,,G,]2 [G,,B,] | [D,A,]2 [D,D] [D,D]2 [D,D] | [D,D]3 [D,D]2 [D,F,] | %7
 G,2 [G,A,] [G,B,]2 G, | [D,G,]3 [D,F,]2 [D,F,] | [G,,G,]3 [B,,F,]3 | [C,E,]3- [C,E,]2 [C,G,] | %11
 [D,G,]3 [D,F,]3 | [G,,G,]3- [G,,G,]2 |] %13
V:4
 x | x6 | x6 | x6 | x6 | x6 | x6 | G,2 x G, x2 | x6 | x6 | x6 | x6 | x5 |] %13

